src/pos-icons/hospital-building.svg

<svg height="24" viewBox="0 0 24 24" width="24" xmlns="http://www.w3.org/2000/svg"><path d="m2 22v-15a1 1 0 0 1 1-1h4v-4h10v4h4a1 1 0 0 1 1 1v15h-8v-5h-4v5zm7-18v6h2v-2h2v2h2v-6h-2v2h-2v-2zm-5 16h4v-3h-4zm0-5h4v-3h-4zm12 5h4v-3h-4zm0-5h4v-3h-4zm-6 0h4v-3h-4z"/></svg>

<?xml version="1.0" encoding="UTF-8"?><!DOCTYPE svg PUBLIC "-//W3C//DTD SVG 1.1//EN" "http://www.w3.org/Graphics/SVG/1.1/DTD/svg11.dtd"><svg xmlns="http://www.w3.org/2000/svg" xmlns:xlink="http://www.w3.org/1999/xlink" version="1.1" id="mdi-hospital-building" width="24" height="24" viewBox="0 0 24 24"><path d="M2,22V7A1,1 0 0,1 3,6H7V2H17V6H21A1,1 0 0,1 22,7V22H14V17H10V22H2M9,4V10H11V8H13V10H15V4H13V6H11V4H9M4,20H8V17H4V20M4,15H8V12H4V15M16,20H20V17H16V20M16,15H20V12H16V15M10,15H14V12H10V15Z" /></svg>
